fs/desktop_edit_16_regular.svg

<svg viewBox="0 0 16 16" fill="none" xmlns="http://www.w3.org/2000/svg" height="1em" width="1em">
  <path d="M6.97975 6.37719L11.8092 1.54776C12.5395 0.817413 13.7237 0.817413 14.454 1.54776C15.1843 2.27811 15.1843 3.46223 14.454 4.19258L9.62457 9.02201C9.343 9.30358 8.99019 9.50334 8.60387 9.59992L7.10597 9.9744C6.45456 10.1372 5.86451 9.5472 6.02737 8.89579L6.40184 7.39789C6.49842 7.01157 6.69818 6.65876 6.97975 6.37719ZM4 10.9973H6.74073C6.83342 11.0043 6.92786 11.0045 7.02353 10.9973H12C12.5523 10.9973 13 10.5496 13 9.99729V7.06073L14 6.06073V9.99729C14 11.1019 13.1046 11.9973 12 11.9973H10.0029V13H11.5021C11.7783 13 12.0021 13.2239 12.0021 13.5C12.0021 13.7761 11.7783 14 11.5021 14H4.50599C4.22985 14 4.00599 13.7761 4.00599 13.5C4.00598 13.2239 4.22984 13 4.50598 13H6.005V11.9973H4C2.89543 11.9973 2 11.1019 2 9.99729V4C2 2.89543 2.89543 2 4 2H9.94266L8.94266 3H4C3.44772 3 3 3.44772 3 4V9.99729C3 10.5496 3.44772 10.9973 4 10.9973ZM9.00293 11.9973H7.005V13H9.00293V11.9973Z" fill="#212121"/>
</svg>

<svg viewBox="0 0 16 16" fill="none" xmlns="http://www.w3.org/2000/svg" height="1em" width="1em">
  <path d="m6.98 6.377 4.83-4.83a1.87 1.87 0 1 1 2.644 2.646l-4.83 4.829a2.197 2.197 0 0 1-1.02.578l-1.498.374a.89.89 0 0 1-1.079-1.078l.375-1.498a2.18 2.18 0 0 1 .578-1.02ZM4 10.997h2.74c.093.007.188.008.284 0H12a1 1 0 0 0 1-1V7.061l1-1v3.936a2 2 0 0 1-2 2h-1.997V13h1.5a.5.5 0 1 1 0 1H4.505a.5.5 0 0 1 0-1h1.499v-1.003H4a2 2 0 0 1-2-2V4a2 2 0 0 1 2-2h5.943l-1 1H4a1 1 0 0 0-1 1v5.997a1 1 0 0 0 1 1Zm5.003 1H7.005V13h1.998v-1.003Z" fill="#212121"/>
</svg>
